humanity-icon-theme/Humanity/places/24/bookmark-missing.svg

<?xml version="1.0" encoding="UTF-8" standalone="no"?>
<!-- Created with Inkscape (http://www.inkscape.org/) -->

<svg
   xmlns:svg="http://www.w3.org/2000/svg"
   xmlns="http://www.w3.org/2000/svg"
   xmlns:xlink="http://www.w3.org/1999/xlink"
   version="1.1"
   width="24"
   height="24"
   id="svg2997">
  <defs
     id="defs2999">
    <linearGradient
       x1="23.470181"
       y1="11.209872"
       x2="23.470181"
       y2="35.051075"
       id="linearGradient2907-491"
       xlink:href="#linearGradient3642-66"
       gradientUnits="userSpaceOnUse"
       gradientTransform="matrix(0.77056228,0,0,0.77077837,-4.5546733,17.801037)" />
    <linearGradient
       id="linearGradient3642-66">
      <stop
         id="stop2894"
         style="stop-color:#ffffff;stop-opacity:1"
         offset="0" />
      <stop
         id="stop2896"
         style="stop-color:#ffffff;stop-opacity:0"
         offset="1" />
    </linearGradient>
    <linearGradient
       x1="11.566265"
       y1="22.292103"
       x2="15.214532"
       y2="33.95525"
       id="linearGradient3683-187"
       xlink:href="#linearGradient8265-821-176-38-919-66-249-656"
       gradientUnits="userSpaceOnUse"
       gradientTransform="matrix(0.4893617,0,0,0.4893617,1.7131795,22.728095)" />
    <linearGradient
       id="linearGradient8265-821-176-38-919-66-249-656">
      <stop
         id="stop2888"
         style="stop-color:#ffffff;stop-opacity:0.27450982"
         offset="0" />
      <stop
         id="stop2890"
         style="stop-color:#ffffff;stop-opacity:0"
         offset="1" />
    </linearGradient>
    <radialGradient
       cx="13.138569"
       cy="25.625349"
       r="13.931416"
       fx="13.138569"
       fy="25.625349"
       id="radialGradient3627-124"
       xlink:href="#linearGradient3690-769"
       gradientUnits="userSpaceOnUse"
       gradientTransform="matrix(0,1.2347038,-1.4762672,0,46.15859,-3.609815)" />
    <linearGradient
       id="linearGradient3690-769">
      <stop
         id="stop2872"
         style="stop-color:#e8e8e8;stop-opacity:1"
         offset="0" />
      <stop
         id="stop2874"
         style="stop-color:#d8d8d8;stop-opacity:1"
         offset="0.26238" />
      <stop
         id="stop2876"
         style="stop-color:#c2c2c2;stop-opacity:1"
         offset="0.66093999" />
      <stop
         id="stop2878"
         style="stop-color:#a5a5a5;stop-opacity:1"
         offset="1" />
    </linearGradient>
    <linearGradient
       x1="21.483376"
       y1="36.255058"
       x2="21.483376"
       y2="9.5799999"
       id="linearGradient3629-295"
       xlink:href="#linearGradient3603-368"
       gradientUnits="userSpaceOnUse"
       gradientTransform="matrix(0.77056228,0,0,0.77077837,-4.5542786,1.800642)" />
    <linearGradient
       id="linearGradient3603-368">
      <stop
         id="stop2882"
         style="stop-color:#707070;stop-opacity:1"
         offset="0" />
      <stop
         id="stop2884"
         style="stop-color:#9e9e9e;stop-opacity:1"
         offset="1" />
    </linearGradient>
    <linearGradient
       id="linearGradient8838-300">
      <stop
         id="stop2866"
         style="stop-color:#000000;stop-opacity:1"
         offset="0" />
      <stop
         id="stop2868"
         style="stop-color:#000000;stop-opacity:0"
         offset="1" />
    </linearGradient>
    <radialGradient
       cx="62.625"
       cy="4.625"
       r="10.625"
       fx="62.625"
       fy="4.625"
       id="radialGradient2995"
       xlink:href="#linearGradient8838-300"
       gradientUnits="userSpaceOnUse"
       gradientTransform="matrix(1.0352941,0,0,0.42352883,-52.835297,25.541176)" />
  </defs>
  <g
     transform="translate(0,-8)"
     id="layer1">
    <path
       d="M 23,27.499999 C 23,29.985281 18.075131,32 12,32 5.9248685,32 0.99999999,29.985281 0.99999999,27.499999 0.99999999,25.014718 5.9248685,23 12,23 c 6.075131,0 11,2.014718 11,4.499999 l 0,0 z"
       id="path8836"
       style="opacity:0.3;fill:url(#radialGradient2995);fill-opacity:1;fill-rule:evenodd;stroke:none;stroke-width:0.99999988;marker:none;visibility:visible;display:inline;overflow:visible" />
    <path
       d="m 12.000001,9.4961357 c 0.708911,0 2.994425,5.7107023 3.567948,6.1275073 0.57352,0.416804 6.709462,0.826364 6.928527,1.500768 0.219066,0.674404 -4.504349,4.613371 -4.723415,5.287775 -0.219065,0.674404 1.287639,6.638229 0.714118,7.055033 C 17.913658,29.884024 12.708912,26.607738 12,26.607738 c -0.708911,0 -5.9136574,3.276286 -6.4871791,2.859481 C 4.9392998,29.050415 6.4460042,23.086589 6.2269387,22.412186 6.007873,21.737782 1.2844585,17.798814 1.5035242,17.12441 1.7225898,16.450007 7.8585305,16.040447 8.4320523,15.623643 9.005573,15.206838 11.29109,9.4961357 12.000001,9.4961357 z"
       id="path1307"
       style="fill:url(#radialGradient3627-124);fill-opacity:1;fill-rule:nonzero;stroke:url(#linearGradient3629-295);stroke-width:0.99227142;stroke-linecap:butt;stroke-linejoin:round;stroke-miterlimit:4;stroke-opacity:1;stroke-dasharray:none;stroke-dashoffset:0;marker:none;visibility:visible;display:inline;overflow:visible" />
    <path
       d="m 11.96875,26.09375 c -0.45703,0.693479 -1.679762,2.629165 -3.03125,5.8125 A 0.43670935,0.43670935 0 0 1 8.59375,32.1875 c -2.1354674,0.348211 -4.8091853,0.716906 -6.5625,1.15625 1.1001782,1.3189 2.393494,2.529956 3.625,3.78125 L 20.8125,34.40625 c 0.353244,-0.353813 0.697176,-0.697415 1.0625,-1.0625 -2.051482,-0.507486 -4.36574,-0.808235 -6.5,-1.15625 a 0.43670935,0.43670935 0 0 1 -0.34375,-0.25 c -1.039472,-2.413271 -2.582922,-5.037031 -3.0625,-5.84375 z"
       transform="translate(3.9467e-4,-16.000395)"
       id="path3681"
       style="opacity:0.8;fill:url(#linearGradient3683-187);fill-opacity:1;fill-rule:nonzero;stroke:none;stroke-width:1;marker:none;visibility:visible;display:inline;overflow:visible;enable-background:accumulate" />
    <path
       d="m 12,26.9375 c -0.289389,0.492394 -0.61844,1.165503 -0.96875,1.875 -0.361907,0.732986 -0.746865,1.511515 -1.0625,2.125 C 9.8109327,31.244242 9.6704356,31.520046 9.53125,31.75 9.3920644,31.979954 9.3680081,32.138801 9,32.40625 c -0.3684354,0.267759 -0.5505426,0.251058 -0.8125,0.3125 -0.2619574,0.06144 -0.5652425,0.100734 -0.90625,0.15625 -0.6820149,0.111033 -1.5021108,0.22551 -2.3125,0.34375 -0.7742066,0.112961 -1.5055387,0.221892 -2.0625,0.34375 0.3780266,0.425859 0.9075435,0.983352 1.46875,1.53125 0.5845803,0.570717 1.1708703,1.135202 1.65625,1.625 0.2426898,0.244899 0.4494983,0.484046 0.625,0.6875 0.1755017,0.203454 0.3283605,0.286554 0.46875,0.71875 0.1407051,0.433167 0.085066,0.575594 0.0625,0.84375 C 7.1649339,39.236906 7.115147,39.533479 7.0625,39.875 6.9572061,40.558043 6.7943936,41.380117 6.65625,42.1875 6.5239085,42.960973 6.3999,43.713286 6.34375,44.28125 6.869114,44.051705 7.547246,43.7136 8.25,43.34375 8.9758699,42.961734 9.7261784,42.562086 10.34375,42.25 c 0.308786,-0.156043 0.564288,-0.301637 0.8125,-0.40625 0.248212,-0.104613 0.387156,-0.1875 0.84375,-0.1875 0.456594,0 0.595538,0.08289 0.84375,0.1875 0.248212,0.104613 0.503714,0.250207 0.8125,0.40625 0.617572,0.312086 1.36788,0.711734 2.09375,1.09375 0.702754,0.36985 1.380886,0.707955 1.90625,0.9375 -0.05615,-0.567964 -0.180159,-1.320277 -0.3125,-2.09375 -0.138144,-0.807383 -0.300956,-1.629457 -0.40625,-2.3125 -0.05265,-0.341521 -0.102434,-0.638094 -0.125,-0.90625 -0.02257,-0.268156 -0.0782,-0.410584 0.0625,-0.84375 0.14039,-0.432195 0.293248,-0.515296 0.46875,-0.71875 0.175502,-0.203454 0.38231,-0.442601 0.625,-0.6875 0.48538,-0.489798 1.07167,-1.054283 1.65625,-1.625 0.561206,-0.547898 1.090723,-1.105391 1.46875,-1.53125 -0.556961,-0.121858 -1.288293,-0.230789 -2.0625,-0.34375 C 18.220861,33.10051 17.400765,32.986033 16.71875,32.875 16.377743,32.819484 16.074457,32.780192 15.8125,32.71875 15.550543,32.657308 15.368436,32.67401 15,32.40625 14.631991,32.138801 14.607936,31.979954 14.46875,31.75 14.329564,31.520046 14.189067,31.244242 14.03125,30.9375 13.715615,30.324015 13.330657,29.545486 12.96875,28.8125 12.618441,28.103003 12.289388,27.429894 12,26.9375 z"
       transform="translate(3.9467e-4,-16.000395)"
       id="path2903"
       style="opacity:0.4;fill:none;stroke:url(#linearGradient2907-491);stroke-width:0.99227142;stroke-linecap:butt;stroke-linejoin:round;stroke-miterlimit:4;stroke-opacity:1;stroke-dasharray:none;stroke-dashoffset:0;marker:none;visibility:visible;display:inline;overflow:visible" />
  </g>
</svg>

<?xml version="1.0" encoding="UTF-8" standalone="no"?>
<!-- Created with Inkscape (http://www.inkscape.org/) -->
<svg id="svg2997" xmlns="http://www.w3.org/2000/svg" height="24" width="24" version="1.1" xmlns:xlink="http://www.w3.org/1999/xlink">
 <defs id="defs2999">
  <linearGradient id="linearGradient2907-491" y2="35.051" gradientUnits="userSpaceOnUse" x2="23.47" gradientTransform="matrix(.77056 0 0 .77078 -4.5547 17.801)" y1="11.21" x1="23.47">
   <stop id="stop2894" style="stop-color:#fff" offset="0"/>
   <stop id="stop2896" style="stop-color:#fff;stop-opacity:0" offset="1"/>
  </linearGradient>
  <linearGradient id="linearGradient3683-187" y2="33.955" gradientUnits="userSpaceOnUse" x2="15.215" gradientTransform="matrix(.48936 0 0 .48936 1.7132 22.728)" y1="22.292" x1="11.566">
   <stop id="stop2888" style="stop-color:#fff;stop-opacity:.27451" offset="0"/>
   <stop id="stop2890" style="stop-color:#fff;stop-opacity:0" offset="1"/>
  </linearGradient>
  <radialGradient id="radialGradient3627-124" gradientUnits="userSpaceOnUse" cy="25.625" cx="13.139" gradientTransform="matrix(0 1.2347 -1.4763 0 46.159 -3.6098)" r="13.931">
   <stop id="stop2872" style="stop-color:#e8e8e8" offset="0"/>
   <stop id="stop2874" style="stop-color:#d8d8d8" offset=".26238"/>
   <stop id="stop2876" style="stop-color:#c2c2c2" offset=".66094"/>
   <stop id="stop2878" style="stop-color:#a5a5a5" offset="1"/>
  </radialGradient>
  <linearGradient id="linearGradient3629-295" y2="9.58" gradientUnits="userSpaceOnUse" x2="21.483" gradientTransform="matrix(.77056 0 0 .77078 -4.5543 1.8006)" y1="36.255" x1="21.483">
   <stop id="stop2882" style="stop-color:#707070" offset="0"/>
   <stop id="stop2884" style="stop-color:#9e9e9e" offset="1"/>
  </linearGradient>
  <radialGradient id="radialGradient2995" gradientUnits="userSpaceOnUse" cy="4.625" cx="62.625" gradientTransform="matrix(1.0353 0 0 .42353 -52.835 25.541)" r="10.625">
   <stop id="stop2866" offset="0"/>
   <stop id="stop2868" style="stop-opacity:0" offset="1"/>
  </radialGradient>
 </defs>
 <g id="layer1" transform="translate(0,-8)">
  <path id="path8836" style="opacity:.3;fill-rule:evenodd;fill:url(#radialGradient2995)" d="m23 27.5c0 2.485-4.925 4.5-11 4.5-6.0751 0-11-2.015-11-4.5s4.9249-4.5 11-4.5 11 2.0147 11 4.5z"/>
  <path id="path1307" style="stroke-linejoin:round;stroke:url(#linearGradient3629-295);stroke-width:.99227;fill:url(#radialGradient3627-124)" d="m12 9.4961c0.70891 0 2.9944 5.7107 3.5679 6.1275 0.57352 0.4168 6.7095 0.82636 6.9285 1.5008 0.21907 0.6744-4.5043 4.6134-4.7234 5.2878-0.21906 0.6744 1.2876 6.6382 0.71412 7.055-0.573 0.417-5.778-2.859-6.487-2.859-0.70891 0-5.9137 3.2763-6.4872 2.8595-0.5735-0.418 0.9332-6.381 0.7141-7.056-0.219-0.674-4.9424-4.613-4.7234-5.288 0.2191-0.674 6.355-1.084 6.9286-1.5 0.5735-0.417 2.8589-6.1279 3.5679-6.1279z"/>
  <path id="path3681" style="opacity:.8;fill:url(#linearGradient3683-187)" d="m11.969 26.094c-0.45703 0.69348-1.6798 2.6292-3.0312 5.8125a0.43671 0.43671 0 0 1 -0.344 0.282c-2.1355 0.34821-4.8092 0.71691-6.5625 1.1562 1.1002 1.3189 2.3935 2.53 3.625 3.7812l15.156-2.719c0.35324-0.35381 0.69718-0.69742 1.0625-1.0625-2.0515-0.50749-4.3657-0.80824-6.5-1.1562a0.43671 0.43671 0 0 1 -0.34375 -0.25c-1.0395-2.4133-2.5829-5.037-3.0625-5.8438z" transform="translate(.00039467 -16)"/>
  <path id="path2903" style="opacity:.4;stroke-linejoin:round;stroke:url(#linearGradient2907-491);stroke-width:.99227;fill:none" d="m12 26.938c-0.28939 0.49239-0.61844 1.1655-0.96875 1.875-0.36191 0.73299-0.74686 1.5115-1.0625 2.125-0.1579 0.306-0.2984 0.582-0.4376 0.812-0.1391 0.23-0.1632 0.389-0.5312 0.656-0.36844 0.26776-0.55054 0.25106-0.8125 0.3125s-0.56524 0.10073-0.90625 0.15625c-0.68201 0.11103-1.5021 0.22551-2.3125 0.34375-0.77421 0.11296-1.5055 0.22189-2.0625 0.34375 0.37803 0.42586 0.90754 0.98335 1.4688 1.5312 0.58458 0.57072 1.1709 1.1352 1.6562 1.625 0.24269 0.2449 0.4495 0.48405 0.625 0.6875s0.32836 0.28655 0.46875 0.71875c0.14071 0.43317 0.085066 0.57559 0.0625 0.84375-0.0226 0.269-0.0724 0.565-0.125 0.907-0.1053 0.683-0.2681 1.505-0.4063 2.313-0.1323 0.773-0.2563 1.525-0.3124 2.093 0.5253-0.229 1.2034-0.567 1.9062-0.937 0.7259-0.382 1.4762-0.782 2.094-1.094 0.30879-0.15604 0.56429-0.30164 0.8125-0.40625s0.38716-0.1875 0.84375-0.1875 0.59554 0.08289 0.84375 0.1875 0.50371 0.25021 0.8125 0.40625c0.61757 0.31209 1.3679 0.71173 2.0938 1.0938 0.70275 0.36985 1.3809 0.70796 1.9062 0.9375-0.05615-0.56796-0.18016-1.3203-0.3125-2.0938-0.13814-0.80738-0.30096-1.6295-0.40625-2.3125-0.05265-0.34152-0.10243-0.63809-0.125-0.90625s-0.0782-0.41058 0.0625-0.84375c0.14039-0.4322 0.29325-0.5153 0.46875-0.71875s0.38231-0.4426 0.625-0.6875c0.48538-0.4898 1.0717-1.0543 1.6562-1.625 0.56121-0.5479 1.0907-1.1054 1.4688-1.5312-0.55696-0.12186-1.2883-0.23079-2.0625-0.34375-0.811-0.118-1.631-0.233-2.313-0.344-0.341-0.056-0.645-0.095-0.907-0.156-0.261-0.062-0.444-0.045-0.812-0.313-0.368-0.267-0.392-0.426-0.531-0.656s-0.28-0.506-0.438-0.812c-0.315-0.614-0.7-1.393-1.062-2.126-0.351-0.709-0.68-1.382-0.969-1.874z" transform="translate(.00039467 -16)"/>
 </g>
</svg>
